src/img/icons/remove-icon-1.svg

<?xml version="1.0" encoding="UTF-8" standalone="no"?>
<svg
   xmlns:dc="http://purl.org/dc/elements/1.1/"
   xmlns:cc="http://creativecommons.org/ns#"
   xmlns:rdf="http://www.w3.org/1999/02/22-rdf-syntax-ns#"
   xmlns:svg="http://www.w3.org/2000/svg"
   xmlns="http://www.w3.org/2000/svg"
   xmlns:sodipodi="http://sodipodi.sourceforge.net/DTD/sodipodi-0.dtd"
   xmlns:inkscape="http://www.inkscape.org/namespaces/inkscape"
   width="17px"
   height="18px"
   viewBox="0 0 17 18"
   version="1.1"
   id="svg2"
   inkscape:version="0.91 r13725"
   sodipodi:docname="remove-icon-1.svg">
  <metadata
     id="metadata23">
    <rdf:RDF>
      <cc:Work
         rdf:about="">
        <dc:format>image/svg+xml</dc:format>
        <dc:type
           rdf:resource="http://purl.org/dc/dcmitype/StillImage" />
      </cc:Work>
    </rdf:RDF>
  </metadata>
  <sodipodi:namedview
     pagecolor="#ffffff"
     bordercolor="#666666"
     borderopacity="1"
     objecttolerance="10"
     gridtolerance="10"
     guidetolerance="10"
     inkscape:pageopacity="0"
     inkscape:pageshadow="2"
     inkscape:window-width="1920"
     inkscape:window-height="1017"
     id="namedview21"
     showgrid="false"
     inkscape:zoom="13.111111"
     inkscape:cx="-18.347458"
     inkscape:cy="9"
     inkscape:window-x="-8"
     inkscape:window-y="-8"
     inkscape:window-maximized="1"
     inkscape:current-layer="svg2" />
  <!-- Generator: Sketch 3.6 (26304) - http://www.bohemiancoding.com/sketch -->
  <title
     id="title4">Group</title>
  <desc
     id="desc6">Created with Sketch.</desc>
  <defs
     id="defs8" />
  <g
     id="Page-1"
     style="opacity:1;fill:none;fill-rule:evenodd;stroke:none;stroke-width:1">
    <g
       id="hovers-article-1440"
       transform="translate(-1018,-5208)"
       style="fill:#636671">
      <g
         id="article"
         transform="translate(0,126)">
        <g
           id="comments"
           transform="translate(390,4752)">
          <g
             id="comment"
             transform="translate(0,316)">
            <g
               id="Group"
               transform="translate(628,14)">
              <path
                 d="m 16.313818,3.0138 -4.306216,0 0,-2.346 C 12.007602,0.2982 11.71725,0 11.362568,0 L 5.6395568,0 C 5.28275,0 4.9945227,0.2982 4.9945227,0.6678 l 0,2.346 -4.30834088,0 C 0.3315,3.0138 0.04114773,3.312 0.04114773,3.6816 c 0,0.3672 0.29015909,0.6678 0.64503409,0.6678 l 1.59317048,0 1.0232841,13.0364 C 3.3304545,17.7328 3.6099886,18 3.9453523,18 l 9.1091027,0 c 0.337488,0 0.617022,-0.2672 0.642909,-0.6144 l 1.023284,-13.0364 1.59317,0 c 0.356807,0 0.645034,-0.3004 0.645034,-0.6678 0,-0.3694 -0.288034,-0.6676 -0.645034,-0.6676 l 0,0 z M 6.2845909,1.3354 l 4.4331361,0 0,1.6782 -4.4331361,0 0,-1.6782 0,0 z m 6.1766021,15.3292 -7.9202612,0 -0.9674545,-12.3154 9.8530457,0 -0.96533,12.3154 0,0 z"
                 id="Shape"
                 inkscape:connector-curvature="0" />
              <path
                 d="m 10.072693,14.0676 c -0.3562271,0 -0.6450339,-0.299 -0.6450339,-0.6678 l 0,-5.8966 c 0,-0.3688 0.2888068,-0.6678 0.6450339,-0.6678 0.356228,0 0.645034,0.299 0.645034,0.6678 l 0,5.8964 c 0,0.369 -0.288806,0.668 -0.645034,0.668 l 0,0 z"
                 id="path17"
                 inkscape:connector-curvature="0" />
              <path
                 d="m 6.9280795,14.0676 c -0.3562272,0 -0.645034,-0.299 -0.645034,-0.6678 l 0,-5.8966 c 0,-0.3688 0.2888068,-0.6678 0.645034,-0.6678 0.3562273,0 0.6450341,0.299 0.6450341,0.6678 l 0,5.8964 c -1.932e-4,0.369 -0.2888068,0.668 -0.6450341,0.668 l 0,0 z"
                 id="path19"
                 inkscape:connector-curvature="0" />
            </g>
          </g>
        </g>
      </g>
    </g>
  </g>
</svg>

<?xml version="1.0" encoding="utf-8"?>
<!-- Generator: Avocode 2.6.0 - http://avocode.com -->
<svg height="18" width="17" xmlns:xlink="http://www.w3.org/1999/xlink" xmlns="http://www.w3.org/2000/svg" viewBox="0 0 17 18">
    <path fill="#636671" fill-rule="evenodd" d="M 16.31 3.01 L 12.01 3.01 L 12.01 0.67 C 12.01 0.3 11.72 0 11.36 0 L 5.64 0 C 5.28 0 4.99 0.3 4.99 0.67 L 4.99 3.01 L 0.69 3.01 C 0.33 3.01 0.04 3.31 0.04 3.68 C 0.04 4.05 0.33 4.35 0.69 4.35 L 2.28 4.35 L 3.3 17.39 C 3.33 17.73 3.61 18 3.95 18 L 13.05 18 C 13.39 18 13.67 17.73 13.7 17.39 L 14.72 4.35 L 16.31 4.35 C 16.67 4.35 16.96 4.05 16.96 3.68 C 16.96 3.31 16.67 3.01 16.31 3.01 L 16.31 3.01 Z M 6.28 1.34 L 10.72 1.34 L 10.72 3.01 L 6.28 3.01 L 6.28 1.34 L 6.28 1.34 Z M 12.46 16.66 L 4.54 16.66 L 3.57 4.35 L 13.43 4.35 L 12.46 16.66 L 12.46 16.66 Z M 12.46 16.66" />
</svg>
